!!!OTL: LASST UNS DAS KINDLEIN WIEGEN
!!!ARE: Europa, Mitteleuropa, Deutschland, Schlesien, Glatz
!!!SCT: E1940A
!!!YEM: Copyright 1995, estate of Helmut Schaffrath.
**kern
*ICvox
*Ivox
*M6/8
*k[b-]
*F:
{8c
=1
4cc
8cc
8a
8b-
8cc
=2
8g
8f
8g
4a}
{8c
=3
4cc
8cc
8a
8b-
8cc
=4
8g
8f
8g
4a}
{8g
=5
4a
8g
8a
8b-
8g
=6
8f
8f
8r}
{4.g
=7
4a
8g
8a
8b-
8g
=8
8f
8f
4.r}
{8c
=9
8.f
16g
8a
8b-
8cc
8b-
=10
8.a
16a
8g
4f}
{8c
=11
8.f
16g
8a
8b-
8cc
8b-
=12
8.a
16a
8g
4f}
==
!!!AGN: geistlich, Fest - Lied, Weihnachten
!!!ONB: ESAC (Essen Associative Code) Database: ERK3
!!!AMT: compound duple
!!!AIN: vox
!!!EED: Helmut Schaffrath
!!!EEV: 1.0
*-
